X: 1
T: Point Road, The
M: 6/8
L: 1/8
R: jig
K: Dmaj
g/f/|:eAA eAA|geg gab|afd g2 b|afd g2 f|eAA geg|
eAA gab|afd gfe|1 f2 d d2 g/f/:|2 f2 d dcB||
A2 d dcd|fae fdB|caa ^ga=g|afg ecA|
Bff cfd|fge fdB|caa ^gaf|gec d2 c|
Bff cfd|fgd fdB|A2 c BdB|caf gec|
Add dcd|f/g/ae fdB|caa ^gaf|gec d3|
